svg/fluentui-system-icons/ic_fluent_clipboard_arrow_right_16_filled.svg

<svg width="16" height="16" viewBox="0 0 16 16" fill="none" xmlns="http://www.w3.org/2000/svg">
<path d="M5.08535 2C5.29127 1.4174 5.84689 1 6.5 1H9.5C10.1531 1 10.7087 1.4174 10.9146 2H11.5C12.3284 2 13 2.67157 13 3.5V5.59971C12.2499 5.21628 11.4002 5 10.5 5C7.46243 5 5 7.46243 5 10.5C5 12.3602 5.92345 14.0046 7.33692 15H4.5C3.67157 15 3 14.3284 3 13.5V3.5C3 2.67157 3.67157 2 4.5 2H5.08535ZM6.5 2C6.22386 2 6 2.22386 6 2.5C6 2.77614 6.22386 3 6.5 3H9.5C9.77614 3 10 2.77614 10 2.5C10 2.22386 9.77614 2 9.5 2H6.5ZM15 10.5C15 12.9853 12.9853 15 10.5 15C8.01472 15 6 12.9853 6 10.5C6 8.01472 8.01472 6 10.5 6C12.9853 6 15 8.01472 15 10.5ZM12.8532 10.854L12.8557 10.8514C12.9026 10.804 12.938 10.7495 12.9621 10.6914C12.9861 10.6333 12.9996 10.5697 13 10.503L13 10.5L13 10.497C12.9996 10.4303 12.9861 10.3667 12.9621 10.3086C12.9377 10.2496 12.9015 10.1944 12.8536 10.1464L10.8536 8.14645C10.6583 7.95118 10.3417 7.95118 10.1464 8.14645C9.95119 8.34171 9.95119 8.65829 10.1464 8.85355L11.2929 10H8.5C8.22386 10 8 10.2239 8 10.5C8 10.7761 8.22386 11 8.5 11H11.2929L10.1464 12.1464C9.95118 12.3417 9.95118 12.6583 10.1464 12.8536C10.3417 13.0488 10.6583 13.0488 10.8536 12.8536L12.8532 10.854Z" fill="#212121"/>
</svg>

<svg xmlns="http://www.w3.org/2000/svg" width="16" height="16"><path d="M5.085 2A1.5 1.5 0 0 1 6.5 1h3a1.5 1.5 0 0 1 1.415 1h.585A1.5 1.5 0 0 1 13 3.5v2.1A5.5 5.5 0 0 0 7.337 15H4.5A1.5 1.5 0 0 1 3 13.5v-10A1.5 1.5 0 0 1 4.5 2h.585ZM6.5 2a.5.5 0 0 0 0 1h3a.5.5 0 0 0 0-1h-3Zm8.5 8.5a4.5 4.5 0 1 1-9 0 4.5 4.5 0 0 1 9 0Zm-2.147.354.003-.003a.499.499 0 0 0 .144-.348v-.006a.5.5 0 0 0-.146-.35l-2-2a.5.5 0 0 0-.708.707L11.293 10H8.5a.5.5 0 0 0 0 1h2.793l-1.147 1.146a.5.5 0 0 0 .708.708l2-2Z"/></svg>
